dist/img/leasing-mult/condition-3.svg

<svg width="64" height="64" viewBox="0 0 64 64" fill="none" xmlns="http://www.w3.org/2000/svg">
<circle cx="32" cy="32" r="32" fill="#1F2120"/>
<path d="M30.2917 51.1036C17.2377 52.4922 1.38641 37.3251 21.7389 13.8333C24.8783 21.93 42.3898 31.9049 32.71 49.0073C28.3531 45.1334 22.5505 35.9097 22.7115 27.5178C20.0887 37.7813 25.4485 45.9417 30.2884 51.1036H30.2917Z" stroke="white" stroke-linecap="round" stroke-linejoin="round"/>
<path d="M35.7962 48.5006C45.6371 48.3396 56.3298 38.2338 50.1986 14.5139C45.1809 16.4526 36.4 20.5579 32.6367 25.5756C35.8298 29.2248 36.9266 33.9775 36.9266 33.9775C39.1838 29.1376 43.2188 25.1027 43.2188 25.1027C40.3142 30.4256 37.7315 38.0091 37.7315 38.0091C38.5399 45.1097 35.7962 48.4973 35.7962 48.4973V48.5006Z" stroke="white" stroke-linecap="round" stroke-linejoin="round"/>
</svg>

<svg width="64" height="64" viewBox="0 0 64 64" fill="none" xmlns="http://www.w3.org/2000/svg"><circle cx="32" cy="32" r="32" fill="#1F2120"/><path d="M30.292 51.104c-13.054 1.388-28.906-13.779-8.553-37.27 3.14 8.096 20.65 18.07 10.971 35.173-4.357-3.874-10.16-13.097-9.998-21.49-2.623 10.264 2.736 18.425 7.576 23.587h.004z" stroke="#fff" stroke-linecap="round" stroke-linejoin="round"/><path d="M35.796 48.5c9.841-.16 20.534-10.266 14.403-33.986-5.018 1.939-13.799 6.044-17.562 11.062 3.193 3.649 4.29 8.401 4.29 8.401 2.257-4.84 6.292-8.874 6.292-8.874-2.905 5.323-5.488 12.906-5.488 12.906.809 7.1-1.935 10.488-1.935 10.488v.004z" stroke="#fff" stroke-linecap="round" stroke-linejoin="round"/></svg>
